X:1
T: Doon the Water
C:
R:Reel
Q: 232
K:A
M:4/4
L:1/8
|:c1/2c1/2c c2 cB ce|c1/2c1/2c c2 cB ce|fg ag fe dc|dc BA GB Bd|
c1/2c1/2c c2 cB ce|c1/2c1/2c c2 cB ce|fg ag fe dc|dc BA GB Bd|
c1/2c1/2c c2 ce ea|c1/2c1/2c c2 ce ea|f1/2f1/2f f2 fe dc|dc BA GB Bd|
c1/2c1/2c c2 ce ea|c1/2c1/2c c2 ce ea|fg ag fe dc|dc BA GB Bd:|
